X:3040
T:La cucaracha
C:anon.
R:Rumba
F:http://abc.musicaviva.com/tunes/anon/la-cucaracha/la-cucaracha-1.abc
M:C|
L:1/8
K:D
z A,2A, DD FF|"D"A3F- F2 z2|"D"z A2B AG FA|"A7"G3E- E2 z2|
w:In the land of se-\~no-tri-tas,_ sweet lo-li-tas and chi-qui-tas._
"A7"z A,2A, CC EE|"A7"G3E- E2 z2|"A7"z A2B AG FE|"D"D4 z A, A,A,|
